X:1
P: Swallowtail Jig
C: from R. Miller/New England Fiddlers Repertoire
C: Arr. T. Traub 8-10-03
R: Jig
M: 6/8
K: Em
L: 1/8
|: F|"Em"GEE BEE|"Em"GEE BAG|"D"FDD ADD|"D"d^cd AGF|"Em"GEE BEE|
"Em"GEG "G"B2 ^c|"D"d^cd AGF|"Em"GEE E2 :||: B|"Em"B^cd e2 f|"Em"e2 f edB|
"Em"B^cd e2 f|"Em"edB "D"d3|"Em"B^cd e2 f|"Em"e2 f edB|"D"d^cd AGF|"Em"GEE E2 :|
